!!!COM:	Johannes Ockeghem
!!!CDT:	~1425-1497/02/06
!!!OTL:	Aultre Venus
!!!AGN:	Chanson; Rondeau
!!!SCT:	Ock3001
!!!SCA:	Ock3001
!!!voices:	3
**kern	**kern	**kern
*staff3	*staff2	*staff1
*Ivox	*Ivox	*Ivox
*I"Contra	*I"Tenor	*I"Discantus
*I'C	*I'T	*I'D
*clefGv2	*clefGv2	*clefG2
*k[]	*k[b-]	*k[]
*M2/1	*M2/1	*M2/1
*met(C|)	*met(C|)	*met(C|)
=1-	=1-	=1-
!	!	!LO:TX:X=-40:Z=12:t=Form&colon; rondeau
0BB-i	0B-	0f
=2	=2	=2
1D	0B-	1d
[1E-i	.	[1g
=3	=3	=3
2E-/]	0B-	2g/]
2D/	.	4f/
.	.	4e-i/
1BB-i	.	1d
=4	=4	=4
1r	1d	1f
1AA	1c	1e-i
=5	=5	=5
1BB-	1B-	2d/
.	.	2B-i/
1F	2A/	1c
.	2F/	.
=6	=6	=6
2r	1.G	2B-i/
2BB-i/	.	2d/
2C/	.	2e-i/
2D/	2F/	[2f/
=7	=7	=7
2BB-i/	1B-	2f/]
1D	.	4e-i/
.	.	4d/
.	[1A	2.f/
2E-i/	.	.
.	.	4e-i/
=8	=8	=8
1F	1A]	1c
[1c	1A	2r
.	.	2c/
=9	=9	=9
2c\]	1A	1f
2d\	.	.
1e	2.B-\	1g
.	4A/	.
=10	=10	=10
2.f\	0F	1a
4e\	.	.
2d\	.	1a
2c\	.	.
=11	=11	=11
1d	1r	1.a
1c	1F	.
.	.	4g/
.	.	4a/
=12	=12	=12
2r	1G	1b-i
2B-i\	.	.
2c\	2F/	2a/
2d\	2D/	2f/
=13	=13	=13
2.B-i\	1E	2.g/
8A/L	.	8f/L
8G/J	.	8g/J
2F/	1F	1a
2A/	.	.
=14	=14	=14
2B-i\	2D/	2f/
2G/	2E/	2.g/
2c\	2C/	.
.	.	8f/L
.	.	8e/J
2A/	2F/	4d/
.	.	4c/
=15	=15	=15
2B-i\	2E-i/	1g
2d\	2B-\	.
2c\	2A/	2f/
[2B-\	[2G/	[2e-i/
=16	=16	=16
2B-\]	2G/]	2e-/]
2A/	2F/	1d
2.G/	1E-i	.
.	.	2c/
4A/	.	.
=17	=17	=17
4B-i\	2r	0d;
4c\	.	.
1d	2D;/	.
.	2.F/	.
2B-\	.	.
.	4G/	.
=18	=18	=18
2A;/	2A/	0r
2G/	2B-\	.
2F/	2A/	.
[2G/	[2B-\	.
=19	=19	=19
2G/]	2B-\]	1g
2E-i/	2G/	.
1D	1F#i	1a
=20	=20	=20
2r	1G	1b-i
2d\	.	.
2c\	1r	2a/
2B-i\	.	[2b-i\
=21	=21	=21
2G/	4.G/	2b-i\]
.	8A/	.
4F/	4B-\	4a/
4E/	4c\	4g/
2D/	2d\	4.f/
.	.	8g/
2F/	2D/	4a/
.	.	4b-i\
=22	=22	=22
2C/	2r	2.cc\
2r	1d	.
.	.	4a/
2D/	.	2b-i\
[2F/	[2c\	[2a/
=23	=23	=23
2F/]	4c\]	4a/]
.	4B-\	4g/
2G/	2G/	2g/
1D	2.A/	2r
.	.	[2f/
.	4F/	.
=24	=24	=24
2C/	2E/	4f/]
.	.	4g/
1c	2F/	1a
.	1D	.
2B\	.	4g/
.	.	4f/
=25	=25	=25
2c\	2C/	2e/
2C/	1c	2c/
1G	.	1d
.	2Bni\	.
=26	=26	=26
2r	1.c	1c
1A	.	.
.	.	1r
2F/	2A/	.
=27	=27	=27
1c	1A	1f
2d\	2.B-\	1g
2c\	.	.
.	4A/	.
=28	=28	=28
2.f\	1F	0a
8e\L	.	.
8d\J	.	.
1c	1r	.
=29	=29	=29
0F	2c\	1a
.	2d\	.
.	2c\	1a
.	[2f\	.
=30	=30	=30
2r	2f\]	1a
1f	2F/	.
.	2D/	2b-i\
4e\	2E/	[2cc\
4d\	.	.
=31	=31	=31
2c\	1F	2cc\]
2A/	.	1f
1G	1C	.
.	.	2e/
=32	=32	=32
1A	1F	2d/
.	.	2c/
2c\	2A/	2.f/
[2d\	[2B-\	.
.	.	8g/L
.	.	8a/J
=33	=33	=33
2d\]	2B-\]	2.b-i\
1.e	2G/	.
.	.	8a/L
.	.	8b-/J
.	2c\	2a/
.	2C/	[2g/
=34	=34	=34
1.c	1F	4g/]
.	.	4f/
.	.	1f
.	1G	.
2B-i\	.	2e/
=35	=35	=35
0cl	0Fl	0fl
==	==	==
*-	*-	*-
!!!RDF**kern: l=long note in original notation
!!!RDF**kern: i=editorial accidental
!!!RDF**kern: V=start of tuplet marker
!!!RDF**kern: Z=end of tuplet marker
!!!ENC:	Chris Gage 06-13-2012
!!!END:	2012/06/29/
!!!EED:	Jesse Rodin
!!!EEV:	2012/07/16/
!!!ONB:	Translated from MusicXML and edited on 2012/07/16/ by Craig Sapp
!!muse2ps: C^@{COM}^i2I150v80,90,120Q16
